styles/2/Numix/22/places/orange-folder-vm.svg

<?xml version="1.0" encoding="UTF-8" standalone="no"?>
<!-- Created with Inkscape (http://www.inkscape.org/) -->

<svg
   xmlns:dc="http://purl.org/dc/elements/1.1/"
   xmlns:cc="http://creativecommons.org/ns#"
   xmlns:rdf="http://www.w3.org/1999/02/22-rdf-syntax-ns#"
   xmlns:svg="http://www.w3.org/2000/svg"
   xmlns="http://www.w3.org/2000/svg"
   xmlns:sodipodi="http://sodipodi.sourceforge.net/DTD/sodipodi-0.dtd"
   xmlns:inkscape="http://www.inkscape.org/namespaces/inkscape"
   width="22"
   height="22"
   id="svg2"
   version="1.1"
   inkscape:version="0.91 r"
   sodipodi:docname="orange-folder-vm.svg"
   inkscape:export-filename="/media/Data/Main/Visuals/Icons/Numix/Desktop/repos/numix-wiki/Gjorgi/Numix-folders/48/New/folder-144.png"
   inkscape:export-xdpi="270"
   inkscape:export-ydpi="270">
  <defs
     id="defs4" />
  <sodipodi:namedview
     id="base"
     pagecolor="#ffffff"
     bordercolor="#666666"
     borderopacity="1.0"
     inkscape:pageopacity="0.0"
     inkscape:pageshadow="2"
     inkscape:zoom="31.96571"
     inkscape:cx="5.6919062"
     inkscape:cy="9.8676641"
     inkscape:document-units="px"
     inkscape:current-layer="layer1"
     showgrid="true"
     inkscape:window-width="1280"
     inkscape:window-height="998"
     inkscape:window-x="0"
     inkscape:window-y="0"
     inkscape:window-maximized="1"
     showguides="true"
     inkscape:guide-bbox="true"
     inkscape:object-nodes="true">
    <inkscape:grid
       type="xygrid"
       id="grid2985"
       empspacing="5"
       visible="true"
       enabled="true"
       snapvisiblegridlinesonly="true" />
  </sodipodi:namedview>
  <metadata
     id="metadata7">
    <rdf:RDF>
      <cc:Work
         rdf:about="">
        <dc:format>image/svg+xml</dc:format>
        <dc:type
           rdf:resource="http://purl.org/dc/dcmitype/StillImage" />
        <dc:title />
      </cc:Work>
    </rdf:RDF>
  </metadata>
  <g
     inkscape:label="Layer 1"
     inkscape:groupmode="layer"
     id="layer1"
     transform="translate(0,-1030.3622)">
    <path
       style="font-size:medium;font-style:normal;font-variant:normal;font-weight:normal;font-stretch:normal;text-indent:0;text-align:start;text-decoration:none;line-height:normal;letter-spacing:normal;word-spacing:normal;text-transform:none;direction:ltr;block-progression:tb;writing-mode:lr-tb;text-anchor:start;baseline-shift:baseline;color:#000000;fill:#f57c00;fill-opacity:1;fill-rule:nonzero;stroke:none;stroke-width:1.03313816;marker:none;visibility:visible;display:inline;overflow:visible;enable-background:accumulate;font-family:Sans;-inkscape-font-specification:Sans"
       d="m 3.0000118,1032.3622 c -0.547331,0 -1,0.4097 -1,1 l 0,1 -1,0 c -0.50192754,0 -1.000000244444,0.3847 -1.000000244444,1 -1.53000004e-5,4.5937 0,9.4063 0,14 0,0.5458 0.493417304444,1 1.000000244444,1 l 20.0000002,0 c 0.515688,0 1,-0.437 1,-1 l 0,-13 c 0,-0.577 -0.423105,-1 -1,-1 l -2,0 0,-2 c 0,-0.4874 -0.401824,-1 -1,-1 z"
       id="path2995"
       inkscape:connector-curvature="0"
       sodipodi:nodetypes="ccccccssssscssc" />
    <path
       style="font-size:medium;font-style:normal;font-variant:normal;font-weight:normal;font-stretch:normal;text-indent:0;text-align:start;text-decoration:none;line-height:normal;letter-spacing:normal;word-spacing:normal;text-transform:none;direction:ltr;block-progression:tb;writing-mode:lr-tb;text-anchor:start;baseline-shift:baseline;color:#000000;fill:#000000;fill-opacity:0.32156863;fill-rule:nonzero;stroke:none;stroke-width:1.03313816;marker:none;visibility:visible;display:inline;overflow:visible;enable-background:accumulate;font-family:Sans;-inkscape-font-specification:Sans"
       d="m 3.0000118,1032.3622 c -0.544455,0 -1,0.3989 -1,1 l 0,1 -1,0 c -0.50675974,0 -1.000000244444,0.3965 -1.000000244444,1 -2.6e-5,4.5937 0,9.4063 0,14 0,0.4872 0.419198504444,1 1.000000244444,1 l 20.0000002,0 c 0.521212,0 1,-0.4426 1,-1 l 0,-13 c 0,-0.5731 -0.393904,-1 -1,-1 l -2,0 0,-2 c 0,-0.5585 -0.457433,-1 -1,-1 z m 10.0000002,3 0,1 8,0 0,13 -20.0000002,0 0,-14 z"
       id="path3786"
       inkscape:connector-curvature="0"
       sodipodi:nodetypes="ssccccssssscsssccccccc" />
    <path
       style="opacity:1;fill:#000000;fill-opacity:0.32156864000000002;fill-rule:evenodd;stroke:none"
       d="M 9 8 C 8.446 8 8 8.446 8 9 L 14 9 C 14 8.446 13.554 8 13 8 L 9 8 z M 8 10 L 8 16 L 14 16 L 14 10 L 8 10 z M 9 11 L 13 11 L 13 12 L 9 12 L 9 11 z M 11 13 C 11.552285 13 12 13.447715 12 14 C 12 14.552285 11.552285 15 11 15 C 10.447715 15 10 14.552285 10 14 C 10 13.447715 10.447715 13 11 13 z M 8 17 C 8 17.554 8.446 18 9 18 L 13 18 C 13.554 18 14 17.554 14 17 L 8 17 z "
       transform="translate(0,1030.3622)"
       id="rect3004" />
  </g>
</svg>

<!-- Created with Inkscape (http://www.inkscape.org/) -->
<svg xmlns="http://www.w3.org/2000/svg" viewBox="0 0 22 22">
 <g transform="translate(0,-1030.3622)">
  <path d="m 3 1032.36 c -0.547 0 -1 0.41 -1 1 l 0 1 -1 0 c -0.502 0 -1 0.385 -1 1 0 4.594 0 9.406 0 14 0 0.546 0.493 1 1 1 l 20 0 c 0.516 0 1 -0.437 1 -1 l 0 -13 c 0 -0.577 -0.423 -1 -1 -1 l -2 0 0 -2 c 0 -0.487 -0.402 -1 -1 -1 z" style="visibility:visible;fill:#f57c00;fill-opacity:1;stroke:none;display:inline;color:#000;fill-rule:nonzero"/>
  <path d="m 3 1032.36 c -0.544 0 -1 0.399 -1 1 l 0 1 -1 0 c -0.507 0 -1 0.397 -1 1 0 4.594 0 9.406 0 14 0 0.487 0.419 1 1 1 l 20 0 c 0.521 0 1 -0.443 1 -1 l 0 -13 c 0 -0.573 -0.394 -1 -1 -1 l -2 0 0 -2 c 0 -0.559 -0.457 -1 -1 -1 z m 10 3 0 1 8 0 0 13 -20 0 0 -14 z" style="visibility:visible;fill:#000;fill-opacity:0.322;stroke:none;display:inline;color:#000;fill-rule:nonzero"/>
  <path d="m 9 8 c -0.554 0 -1 0.446 -1 1 l 6 0 c 0 -0.554 -0.446 -1 -1 -1 l -4 0 z m -1 2 l 0 6 l 6 0 l 0 -6 l -6 0 z m 1 1 l 4 0 l 0 1 l -4 0 l 0 -1 z m 2 2 c 0.552 0 1 0.448 1 1 c 0 0.552 -0.448 1 -1 1 c -0.552 0 -1 -0.448 -1 -1 c 0 -0.552 0.448 -1 1 -1 z m -3 4 c 0 0.554 0.446 1 1 1 l 4 0 c 0.554 0 1 -0.446 1 -1 l -6 0 z" transform="translate(0,1030.3622)" style="fill:#000;opacity:1;fill-opacity:0.322;stroke:none;fill-rule:evenodd"/>
 </g>
</svg>
